src/components/00-materials/images-raw/Cars.svg

<svg width="48" height="48" viewBox="0 0 48 48" fill="none" xmlns="http://www.w3.org/2000/svg">
    <path d="M25.695 28.96V26.245C25.6948 25.9176 25.5803 25.6006 25.3712 25.3486C25.1622 25.0966 24.8717 24.9256 24.55 24.865L20.62 23.865L18.075 21.555C16.575 20.19 15.575 19.395 14.245 19.395H8.34996C7.58496 19.395 6.63996 20.585 6.14496 21.175L3.81996 24.125C3.73301 24.2229 3.62768 24.3027 3.50996 24.36C3.3814 24.4313 3.27422 24.5356 3.1995 24.6622C3.12478 24.7888 3.08524 24.933 3.08496 25.08V28.64M8.95996 30.745H18.06H8.95996ZM8.46996 28.96H18.545H8.46996Z" stroke="currentColor" stroke-linecap="round" stroke-linejoin="round"/>
    <path d="M6.61001 33.095C7.90788 33.095 8.96001 32.0429 8.96001 30.745C8.96001 29.4472 7.90788 28.395 6.61001 28.395C5.31214 28.395 4.26001 29.4472 4.26001 30.745C4.26001 32.0429 5.31214 33.095 6.61001 33.095Z" stroke="currentColor" stroke-linecap="round" stroke-linejoin="round"/>
    <path d="M6.61011 31.2451C6.88625 31.2451 7.11011 31.0212 7.11011 30.7451C7.11011 30.4689 6.88625 30.2451 6.61011 30.2451C6.33397 30.2451 6.11011 30.4689 6.11011 30.7451C6.11011 31.0212 6.33397 31.2451 6.61011 31.2451Z" stroke="currentColor" stroke-linecap="round" stroke-linejoin="round"/>
    <path d="M20.4101 33.095C21.7079 33.095 22.7601 32.0429 22.7601 30.745C22.7601 29.4472 21.7079 28.395 20.4101 28.395C19.1122 28.395 18.0601 29.4472 18.0601 30.745C18.0601 32.0429 19.1122 33.095 20.4101 33.095Z" stroke="currentColor" stroke-linecap="round" stroke-linejoin="round"/>
    <path d="M20.4102 31.2451C20.6863 31.2451 20.9102 31.0212 20.9102 30.7451C20.9102 30.4689 20.6863 30.2451 20.4102 30.2451C20.134 30.2451 19.9102 30.4689 19.9102 30.7451C19.9102 31.0212 20.134 31.2451 20.4102 31.2451Z" stroke="currentColor" stroke-linecap="round" stroke-linejoin="round"/>
    <path d="M22.7551 30.745H25.5451C25.6424 30.745 25.7388 30.7257 25.8287 30.6881C25.9185 30.6506 26 30.5955 26.0684 30.5262C26.1367 30.4569 26.1907 30.3747 26.227 30.2844C26.2634 30.194 26.2814 30.0974 26.2801 30C26.2801 29.595 25.9501 29 25.5451 29H22.2401M4.26007 30.745H3.26007C3.16062 30.7484 3.06152 30.7316 2.96876 30.6955C2.87601 30.6595 2.79154 30.605 2.72048 30.5353C2.64942 30.4657 2.59324 30.3823 2.55536 30.2903C2.51747 30.1983 2.49866 30.0995 2.50007 30V29.855C2.49908 29.6479 2.57288 29.4473 2.70791 29.2903C2.84294 29.1332 3.03013 29.0301 3.23507 29H4.77507M25.6951 26.93C25.135 26.9087 24.6063 26.6659 24.2251 26.255C23.8309 25.7558 23.5326 25.1879 23.3451 24.58M6.61007 24.14L8.56007 22C8.68167 21.8645 8.83045 21.7562 8.99673 21.6821C9.16301 21.608 9.34304 21.5698 9.52507 21.57H13.3551C14.1944 21.5684 15.004 21.8805 15.6251 22.445L17.5001 24.14H6.61007ZM6.61007 24.14H17.5201M11.8051 28.96V21.545M14.2451 26.255H13.6551M3.08507 26.34C4.73007 26.34 5.13007 24.285 3.63507 24.285M26.2701 29.6H34.7601M26.1101 27.68H35.3901M44.7351 27.61V23.72C44.7353 23.2913 44.5854 22.8761 44.3114 22.5464C44.0374 22.2166 43.6566 21.9933 43.2351 21.915L38.1101 20.09L34.7801 17.09C32.8451 15.305 31.4801 14.92 29.7801 14.92H22.0751C20.1351 14.905 17.0001 20.35 17.0001 20.35" stroke="currentColor" stroke-linecap="round" stroke-linejoin="round"/>
    <path d="M37.83 32.67C39.5255 32.67 40.9 31.2955 40.9 29.6C40.9 27.9045 39.5255 26.53 37.83 26.53C36.1345 26.53 34.76 27.9045 34.76 29.6C34.76 31.2955 36.1345 32.67 37.83 32.67Z" stroke="currentColor" stroke-linecap="round" stroke-linejoin="round"/>
    <path d="M37.8302 30.75C38.4653 30.75 38.9802 30.2351 38.9802 29.6C38.9802 28.9649 38.4653 28.45 37.8302 28.45C37.195 28.45 36.6802 28.9649 36.6802 29.6C36.6802 30.2351 37.195 30.75 37.8302 30.75Z" stroke="currentColor" stroke-linecap="round" stroke-linejoin="round"/>
    <path d="M40.895 29.6H44.54C44.7946 29.6 45.0388 29.4989 45.2188 29.3188C45.3989 29.1388 45.5 28.8946 45.5 28.64C45.5 28.3854 45.3989 28.1412 45.2188 27.9612C45.0388 27.7812 44.7946 27.68 44.54 27.68H40.225M44.735 24.61C44.0049 24.582 43.3152 24.2677 42.815 23.735C42.2995 23.0825 41.9095 22.3399 41.665 21.545M27.36 27.68V17.325M29.775 23.08H29.005M20.135 21.16L22.185 17.96C22.3643 17.7596 22.5839 17.5994 22.8295 17.49C23.0751 17.3805 23.3411 17.3243 23.61 17.325H29.265C30.5052 17.3256 31.701 17.7872 32.62 18.62L35.41 21.16H20.135Z" stroke="currentColor" stroke-linecap="round" stroke-linejoin="round"/>
</svg>

<svg width="48" height="48" viewBox="0 0 48 48" fill="none" xmlns="http://www.w3.org/2000/svg"><path d="M25.695 28.96v-2.715a1.405 1.405 0 00-1.145-1.38l-3.93-1-2.545-2.31c-1.5-1.365-2.5-2.16-3.83-2.16H8.35c-.765 0-1.71 1.19-2.205 1.78l-2.325 2.95a1 1 0 01-.31.235.825.825 0 00-.425.72v3.56m5.875 2.105h9.1-9.1zm-.49-1.785h10.075H8.47z" stroke="currentColor" stroke-linecap="round" stroke-linejoin="round"/><path d="M6.61 33.095a2.35 2.35 0 100-4.7 2.35 2.35 0 000 4.7z" stroke="currentColor" stroke-linecap="round" stroke-linejoin="round"/><path d="M6.61 31.245a.5.5 0 100-1 .5.5 0 000 1zM20.41 33.095a2.35 2.35 0 100-4.7 2.35 2.35 0 000 4.7z" stroke="currentColor" stroke-linecap="round" stroke-linejoin="round"/><path d="M20.41 31.245a.5.5 0 100-1 .5.5 0 000 1zM22.755 30.745h2.79A.735.735 0 0026.28 30c0-.405-.33-1-.735-1H22.24M4.26 30.745h-1A.734.734 0 012.5 30v-.145A.86.86 0 013.235 29h1.54m20.92-2.07a2.115 2.115 0 01-1.47-.675 5.154 5.154 0 01-.88-1.675M6.61 24.14L8.56 22a1.295 1.295 0 01.965-.43h3.83c.84-.002 1.649.31 2.27.875L17.5 24.14H6.61zm0 0h10.91m-5.715 4.82v-7.415m2.44 4.71h-.59m-10.57.085c1.645 0 2.045-2.055.55-2.055M26.27 29.6h8.49m-8.65-1.92h9.28m9.345-.07v-3.89a1.835 1.835 0 00-1.5-1.805L38.11 20.09l-3.33-3c-1.935-1.785-3.3-2.17-5-2.17h-7.705C20.135 14.905 17 20.35 17 20.35M37.83 32.67a3.07 3.07 0 100-6.14 3.07 3.07 0 000 6.14z" stroke="currentColor" stroke-linecap="round" stroke-linejoin="round"/><path d="M37.83 30.75a1.15 1.15 0 100-2.3 1.15 1.15 0 000 2.3zM40.895 29.6h3.645a.96.96 0 100-1.92h-4.315m4.51-3.07a2.78 2.78 0 01-1.92-.875 6.72 6.72 0 01-1.15-2.19M27.36 27.68V17.325m2.415 5.755h-.77m-8.87-1.92l2.05-3.2a1.905 1.905 0 011.425-.635h5.655a5 5 0 013.355 1.295l2.79 2.54H20.135z" stroke="currentColor" stroke-linecap="round" stroke-linejoin="round"/></svg>
